X:142
T:Bobby Shaftoe
M:2/2
L:1/8
Q:1/8=250
K:G
G2 BB A2 B2|G2 BB A2 B2|G2 e2 d2 B2|G2 B2 A4|
G2 BB A2 B2|G2 BB A2 B2|G2 e2 d2 B2|(3BcB A2 G4 ::
g3 f g2 e2|d2 B2 G4|g3 f g2 B2|A6 d2|
g3 f g2 B2|d4 d3 c|B2 G2 A2 F2|G4 G4:||
